X: 1
T:John Rea the Drummer  "5-6 are 2nds for lines 3-4, 7 is 2nds for 4"
M:C
L:1/8
Q:80
C:Composed by Tommy Robinson
S:Waltz
K:HP
[| {g}A2g2f2{g}A2f3e|
{Gdc}d6{GBG}A6|
{g}B2a2{f}g2{a}B2g3f|  !
{gef}e6{gBG}B6|
{gcd}c2a2{f}g2{Bd}B2g2f2|
{Ad}A2f2e2{Gd}G2e2d2|  !
{g}c3de2{g}B2{d}c2e2|
{gBd}B6{G}A6|
{g}A2g2f2{g}A2f3e|  !
{Gdc}d6{GBG}A6|
{g}B2a2{f}g2{a}B2g3f|
{gef}e6{gBG}B2{e}A2|  !
{Gdc}d3fa2B2{g}e2g2|
A3df2{g}G2{d}B2e2|
{g}A3ca2{f}g2A2{d}c2|  !
{gef}e6{Gdc}d6|] [|
{g}f2e2d2{g}f2a3g|
{gfg}f6{g}f6|  !
{g}G2f2{g}e2{g}G2e3d|
{gf}g6{Gd}G4d2|
{g}A3df2{g}G2{d}c2e2|  !
d3fa2B2{g}e2g2|
{cd}c3Ac2{gef}e2c2e2|
{gf}g3{gfg}f3|] [|  !
{g}AgAg{a}f2AfAf{g}e2|
{g}df{g}Ad{g}fa{GBG}A6|
{g}BaBa{f}g2{a}BgBgf2|  !
{g}eg{a}G{d}B{g}eg{BG}B4{e}A2|]
